IMG/SRC/IMG_9865.xmp
<x:xmpmeta xmlns:x="adobe:ns:meta/" x:xmptk="Adobe XMP Core 5.2-c004 1.136881, 2010/06/10-18:11:35        ">
 <rdf:RDF xmlns:rdf="http://www.w3.org/1999/02/22-rdf-syntax-ns#">
  <rdf:Description rdf:about=""
    xmlns:tiff="http://ns.adobe.com/tiff/1.0/">
   <tiff:Make>Canon</tiff:Make>
   <tiff:Model>Canon EOS 5D Mark II</tiff:Model>
   <tiff:Orientation>1</tiff:Orientation>
  </rdf:Description>
  <rdf:Description rdf:about=""
    xmlns:exif="http://ns.adobe.com/exif/1.0/">
   <exif:ExifVersion>0221</exif:ExifVersion>
   <exif:ExposureTime>1/30</exif:ExposureTime>
   <exif:ShutterSpeedValue>4906891/1000000</exif:ShutterSpeedValue>
   <exif:FNumber>4/1</exif:FNumber>
   <exif:ApertureValue>4/1</exif:ApertureValue>
   <exif:ExposureProgram>2</exif:ExposureProgram>
   <exif:ISOSpeedRatings>
    <rdf:Seq>
     <rdf:li>1600</rdf:li>
    </rdf:Seq>
   </exif:ISOSpeedRatings>
   <exif:ExposureBiasValue>0/1</exif:ExposureBiasValue>
   <exif:MaxApertureValue>375/100</exif:MaxApertureValue>
   <exif:SubjectDistance>138/100</exif:SubjectDistance>
   <exif:MeteringMode>5</exif:MeteringMode>
   <exif:Flash rdf:parseType="Resource">
    <exif:Fired>False</exif:Fired>
    <exif:Return>0</exif:Return>
    <exif:Mode>2</exif:Mode>
    <exif:Function>False</exif:Function>
    <exif:RedEyeMode>False</exif:RedEyeMode>
   </exif:Flash>
   <exif:FocalLength>33/1</exif:FocalLength>
   <exif:CustomRendered>0</exif:CustomRendered>
   <exif:ExposureMode>0</exif:ExposureMode>
   <exif:WhiteBalance>0</exif:WhiteBalance>
   <exif:SceneCaptureType>0</exif:SceneCaptureType>
   <exif:FocalPlaneXResolution>5616000/1459</exif:FocalPlaneXResolution>
   <exif:FocalPlaneYResolution>3744000/958</exif:FocalPlaneYResolution>
   <exif:FocalPlaneResolutionUnit>2</exif:FocalPlaneResolutionUnit>
   <exif:DateTimeOriginal>2012-09-06T07:33:58.40</exif:DateTimeOriginal>
  </rdf:Description>
  <rdf:Description rdf:about=""
    xmlns:aux="http://ns.adobe.com/exif/1.0/aux/">
   <aux:SerialNumber>3521604688</aux:SerialNumber>
   <aux:LensInfo>28/1 135/1 0/0 0/0</aux:LensInfo>
   <aux:Lens>EF28-135mm f/3.5-5.6 IS USM</aux:Lens>
   <aux:LensID>178</aux:LensID>
   <aux:ImageNumber>0</aux:ImageNumber>
   <aux:ApproximateFocusDistance>138/100</aux:ApproximateFocusDistance>
   <aux:FlashCompensation>0/1</aux:FlashCompensation>
   <aux:Firmware>2.0.9</aux:Firmware>
  </rdf:Description>
  <rdf:Description rdf:about=""
    xmlns:xmp="http://ns.adobe.com/xap/1.0/">
   <xmp:ModifyDate>2012-09-06T07:33:58.40</xmp:ModifyDate>
   <xmp:CreateDate>2012-09-06T07:33:58.40</xmp:CreateDate>
   <xmp:Rating>0</xmp:Rating>
   <xmp:MetadataDate>2012-09-07T05:46:04-04:00</xmp:MetadataDate>
  </rdf:Description>
  <rdf:Description rdf:about=""
    xmlns:photoshop="http://ns.adobe.com/photoshop/1.0/">
   <photoshop:DateCreated>2012-09-06T07:33:58.40</photoshop:DateCreated>
   <photoshop:SidecarForExtension>CR2</photoshop:SidecarForExtension>
  </rdf:Description>
  <rdf:Description rdf:about=""
    xmlns:xmpMM="http://ns.adobe.com/xap/1.0/mm/"
    xmlns:stEvt="http://ns.adobe.com/xap/1.0/sType/ResourceEvent#">
   <xmpMM:DocumentID>279678A7029A23A7061F0E976410FECC</xmpMM:DocumentID>
   <xmpMM:OriginalDocumentID>279678A7029A23A7061F0E976410FECC</xmpMM:OriginalDocumentID>
   <xmpMM:InstanceID>xmp.iid:07801174072068118083F8C70F9C9AB0</xmpMM:InstanceID>
   <xmpMM:History>
    <rdf:Seq>
     <rdf:li rdf:parseType="Resource">
      <stEvt:action>saved</stEvt:action>
      <stEvt:instanceID>xmp.iid:07801174072068118083F8C70F9C9AB0</stEvt:instanceID>
      <stEvt:when>2012-09-07T05:46:04-04:00</stEvt:when>
      <stEvt:softwareAgent>Adobe Photoshop Camera Raw 6.4.1</stEvt:softwareAgent>
      <stEvt:changed>/metadata</stEvt:changed>
     </rdf:li>
    </rdf:Seq>
   </xmpMM:History>
  </rdf:Description>
  <rdf:Description rdf:about=""
    xmlns:dc="http://purl.org/dc/elements/1.1/">
   <dc:format>image/x-canon-cr2</dc:format>
  </rdf:Description>
  <rdf:Description rdf:about=""
    xmlns:crs="http://ns.adobe.com/camera-raw-settings/1.0/">
   <crs:RawFileName>IMG_9865.CR2</crs:RawFileName>
   <crs:Version>6.4.1</crs:Version>
   <crs:ProcessVersion>5.7</crs:ProcessVersion>
   <crs:WhiteBalance>Auto</crs:WhiteBalance>
   <crs:Temperature>3300</crs:Temperature>
   <crs:Tint>0</crs:Tint>
   <crs:Exposure>+0.30</crs:Exposure>
   <crs:Shadows>5</crs:Shadows>
   <crs:Brightness>+45</crs:Brightness>
   <crs:Contrast>+25</crs:Contrast>
   <crs:Saturation>0</crs:Saturation>
   <crs:Sharpness>25</crs:Sharpness>
   <crs:LuminanceSmoothing>0</crs:LuminanceSmoothing>
   <crs:ColorNoiseReduction>25</crs:ColorNoiseReduction>
   <crs:ChromaticAberrationR>0</crs:ChromaticAberrationR>
   <crs:ChromaticAberrationB>0</crs:ChromaticAberrationB>
   <crs:VignetteAmount>0</crs:VignetteAmount>
   <crs:ShadowTint>0</crs:ShadowTint>
   <crs:RedHue>0</crs:RedHue>
   <crs:RedSaturation>0</crs:RedSaturation>
   <crs:GreenHue>0</crs:GreenHue>
   <crs:GreenSaturation>0</crs:GreenSaturation>
   <crs:BlueHue>0</crs:BlueHue>
   <crs:BlueSaturation>0</crs:BlueSaturation>
   <crs:FillLight>0</crs:FillLight>
   <crs:Vibrance>-8</crs:Vibrance>
   <crs:HighlightRecovery>0</crs:HighlightRecovery>
   <crs:Clarity>+6</crs:Clarity>
   <crs:Defringe>0</crs:Defringe>
   <crs:HueAdjustmentRed>0</crs:HueAdjustmentRed>
   <crs:HueAdjustmentOrange>0</crs:HueAdjustmentOrange>
   <crs:HueAdjustmentYellow>0</crs:HueAdjustmentYellow>
   <crs:HueAdjustmentGreen>0</crs:HueAdjustmentGreen>
   <crs:HueAdjustmentAqua>0</crs:HueAdjustmentAqua>
   <crs:HueAdjustmentBlue>0</crs:HueAdjustmentBlue>
   <crs:HueAdjustmentPurple>0</crs:HueAdjustmentPurple>
   <crs:HueAdjustmentMagenta>0</crs:HueAdjustmentMagenta>
   <crs:SaturationAdjustmentRed>0</crs:SaturationAdjustmentRed>
   <crs:SaturationAdjustmentOrange>0</crs:SaturationAdjustmentOrange>
   <crs:SaturationAdjustmentYellow>0</crs:SaturationAdjustmentYellow>
   <crs:SaturationAdjustmentGreen>0</crs:SaturationAdjustmentGreen>
   <crs:SaturationAdjustmentAqua>0</crs:SaturationAdjustmentAqua>
   <crs:SaturationAdjustmentBlue>0</crs:SaturationAdjustmentBlue>
   <crs:SaturationAdjustmentPurple>0</crs:SaturationAdjustmentPurple>
   <crs:SaturationAdjustmentMagenta>0</crs:SaturationAdjustmentMagenta>
   <crs:LuminanceAdjustmentRed>0</crs:LuminanceAdjustmentRed>
   <crs:LuminanceAdjustmentOrange>0</crs:LuminanceAdjustmentOrange>
   <crs:LuminanceAdjustmentYellow>0</crs:LuminanceAdjustmentYellow>
   <crs:LuminanceAdjustmentGreen>0</crs:LuminanceAdjustmentGreen>
   <crs:LuminanceAdjustmentAqua>0</crs:LuminanceAdjustmentAqua>
   <crs:LuminanceAdjustmentBlue>0</crs:LuminanceAdjustmentBlue>
   <crs:LuminanceAdjustmentPurple>0</crs:LuminanceAdjustmentPurple>
   <crs:LuminanceAdjustmentMagenta>0</crs:LuminanceAdjustmentMagenta>
   <crs:SplitToningShadowHue>0</crs:SplitToningShadowHue>
   <crs:SplitToningShadowSaturation>0</crs:SplitToningShadowSaturation>
   <crs:SplitToningHighlightHue>0</crs:SplitToningHighlightHue>
   <crs:SplitToningHighlightSaturation>0</crs:SplitToningHighlightSaturation>
   <crs:SplitToningBalance>0</crs:SplitToningBalance>
   <crs:ParametricShadows>0</crs:ParametricShadows>
   <crs:ParametricDarks>0</crs:ParametricDarks>
   <crs:ParametricLights>0</crs:ParametricLights>
   <crs:ParametricHighlights>0</crs:ParametricHighlights>
   <crs:ParametricShadowSplit>25</crs:ParametricShadowSplit>
   <crs:ParametricMidtoneSplit>50</crs:ParametricMidtoneSplit>
   <crs:ParametricHighlightSplit>75</crs:ParametricHighlightSplit>
   <crs:SharpenRadius>+1.0</crs:SharpenRadius>
   <crs:SharpenDetail>25</crs:SharpenDetail>
   <crs:SharpenEdgeMasking>0</crs:SharpenEdgeMasking>
   <crs:PostCropVignetteAmount>0</crs:PostCropVignetteAmount>
   <crs:GrainAmount>0</crs:GrainAmount>
   <crs:ColorNoiseReductionDetail>50</crs:ColorNoiseReductionDetail>
   <crs:LensProfileEnable>0</crs:LensProfileEnable>
   <crs:LensManualDistortionAmount>0</crs:LensManualDistortionAmount>
   <crs:PerspectiveVertical>0</crs:PerspectiveVertical>
   <crs:PerspectiveHorizontal>0</crs:PerspectiveHorizontal>
   <crs:PerspectiveRotate>0.0</crs:PerspectiveRotate>
   <crs:PerspectiveScale>100</crs:PerspectiveScale>
   <crs:ConvertToGrayscale>False</crs:ConvertToGrayscale>
   <crs:ToneCurveName>Medium Contrast</crs:ToneCurveName>
   <crs:ToneCurve>
    <rdf:Seq>
     <rdf:li>0, 0</rdf:li>
     <rdf:li>32, 22</rdf:li>
     <rdf:li>64, 56</rdf:li>
     <rdf:li>128, 128</rdf:li>
     <rdf:li>192, 196</rdf:li>
     <rdf:li>255, 255</rdf:li>
    </rdf:Seq>
   </crs:ToneCurve>
   <crs:CameraProfile>Adobe Standard</crs:CameraProfile>
   <crs:CameraProfileDigest>3DA8CE4A626CE36A1D0C55BF157793C9</crs:CameraProfileDigest>
   <crs:LensProfileSetup>LensDefaults</crs:LensProfileSetup>
   <crs:GradientBasedCorrections>
    <rdf:Seq>
     <rdf:li rdf:parseType="Resource">
      <crs:What>Correction</crs:What>
      <crs:CorrectionAmount>1.000000</crs:CorrectionAmount>
      <crs:CorrectionActive>true</crs:CorrectionActive>
      <crs:LocalExposure>0.125000</crs:LocalExposure>
      <crs:LocalSaturation>0.000000</crs:LocalSaturation>
      <crs:LocalContrast>0.000000</crs:LocalContrast>
      <crs:LocalClarity>0.000000</crs:LocalClarity>
      <crs:LocalSharpness>0.000000</crs:LocalSharpness>
      <crs:LocalBrightness>0.000000</crs:LocalBrightness>
      <crs:LocalToningHue>0.000000</crs:LocalToningHue>
      <crs:LocalToningSaturation>0.000000</crs:LocalToningSaturation>
      <crs:CorrectionMasks>
       <rdf:Seq>
        <rdf:li rdf:parseType="Resource">
         <crs:What>Mask/Gradient</crs:What>
         <crs:MaskValue>1.000000</crs:MaskValue>
         <crs:ZeroX>0.436496</crs:ZeroX>
         <crs:ZeroY>0.457270</crs:ZeroY>
         <crs:FullX>0.740371</crs:FullX>
         <crs:FullY>0.460381</crs:FullY>
        </rdf:li>
       </rdf:Seq>
      </crs:CorrectionMasks>
     </rdf:li>
    </rdf:Seq>
   </crs:GradientBasedCorrections>
   <crs:HasSettings>True</crs:HasSettings>
   <crs:CropTop>0.077699</crs:CropTop>
   <crs:CropLeft>0.090154</crs:CropLeft>
   <crs:CropBottom>0.951957</crs:CropBottom>
   <crs:CropRight>0.964413</crs:CropRight>
   <crs:CropAngle>0</crs:CropAngle>
   <crs:CropConstrainToWarp>1</crs:CropConstrainToWarp>
   <crs:CropWidth>2</crs:CropWidth>
   <crs:CropHeight>3</crs:CropHeight>
   <crs:CropUnit>3</crs:CropUnit>
   <crs:HasCrop>True</crs:HasCrop>
   <crs:AlreadyApplied>False</crs:AlreadyApplied>
  </rdf:Description>
 </rdf:RDF>
</x:xmpmeta>
